X:255
T:Opus 38
C:David Grisman
N:1975 Dawg Music From the Mandozine Website Tabledited by Mike Stangeland
L:1/8
Q:1/4=230
M:4/4
K:C
z8 |: "Am"ef ed cB cB | "G"Ac de gd eg | "Am"ef ed cB Ac | "Em"BA GB AG E2 | "Am"ef ed cB cB | 
"G"Ac de g2 de | "Em"ea ed dg ed | cA Gc "Am"A2 ee :| [A2A2] [AA][AA] [A2A2] [AA][AA] | 
"G"dg ed cA Gc | "Am"AA AA AA AA | "Em"dB AG EG EG | [A2A2] [AA][AA] [A2A2] [AA][AA] | 
"G"dg ed cA Gc | "Am"ea ed dg ed | "Em"cA Gc "Am"A4 | "Am"[A2A2] [AA][AA] [A2A2] [AA][AA] | 
"G"dg ed cA Gc | "F"[A2A2] [AA][AA] [A2A2] [AA][AA] | "Em"dB AG EG EG | "F"[A2A2] [AA][AA] [A2A2] [AA][AA] | 
"Em"dg ed cA Gc | "Am"ea ed dg ed | "Em"cA Gc "Am"A4 | 
 

